Tracer.V2/src/assets/groups-24px.svg

<svg xmlns="http://www.w3.org/2000/svg" enable-background="new 0 0 24 24" height="24" viewBox="0 0 24 24" width="24"><rect fill="none" height="24" width="24"/><g><path d="M12,12.75c1.63,0,3.07,0.39,4.24,0.9c1.08,0.48,1.76,1.56,1.76,2.73L18,18H6l0-1.61c0-1.18,0.68-2.26,1.76-2.73 C8.93,13.14,10.37,12.75,12,12.75z M4,13c1.1,0,2-0.9,2-2c0-1.1-0.9-2-2-2s-2,0.9-2,2C2,12.1,2.9,13,4,13z M5.13,14.1 C4.76,14.04,4.39,14,4,14c-0.99,0-1.93,0.21-2.78,0.58C0.48,14.9,0,15.62,0,16.43V18l4.5,0v-1.61C4.5,15.56,4.73,14.78,5.13,14.1z M20,13c1.1,0,2-0.9,2-2c0-1.1-0.9-2-2-2s-2,0.9-2,2C18,12.1,18.9,13,20,13z M24,16.43c0-0.81-0.48-1.53-1.22-1.85 C21.93,14.21,20.99,14,20,14c-0.39,0-0.76,0.04-1.13,0.1c0.4,0.68,0.63,1.46,0.63,2.29V18l4.5,0V16.43z M12,6c1.66,0,3,1.34,3,3 c0,1.66-1.34,3-3,3s-3-1.34-3-3C9,7.34,10.34,6,12,6z"/></g></svg>

<?xml version="1.0" encoding="UTF-8" standalone="no"?>
<!DOCTYPE svg PUBLIC "-//W3C//DTD SVG 1.1//EN" "http://www.w3.org/Graphics/SVG/1.1/DTD/svg11.dtd">
<svg width="100%" height="100%" viewBox="0 0 24 24" version="1.1" xmlns="http://www.w3.org/2000/svg" xmlns:xlink="http://www.w3.org/1999/xlink" xml:space="preserve" xmlns:serif="http://www.serif.com/" style="fill-rule:evenodd;clip-rule:evenodd;stroke-linejoin:round;stroke-miterlimit:2;">
    <rect x="0" y="0" width="24" height="24" style="fill:none;"/>
    <g>
        <path d="M12,12.75C13.63,12.75 15.07,13.14 16.24,13.65C17.32,14.13 18,15.21 18,16.38L18,18L6,18L6,16.39C6,15.21 6.68,14.13 7.76,13.66C8.93,13.14 10.37,12.75 12,12.75ZM4,13C5.1,13 6,12.1 6,11C6,9.9 5.1,9 4,9C2.9,9 2,9.9 2,11C2,12.1 2.9,13 4,13ZM5.13,14.1C4.76,14.04 4.39,14 4,14C3.01,14 2.07,14.21 1.22,14.58C0.48,14.9 0,15.62 0,16.43L0,18L4.5,18L4.5,16.39C4.5,15.56 4.73,14.78 5.13,14.1ZM20,13C21.1,13 22,12.1 22,11C22,9.9 21.1,9 20,9C18.9,9 18,9.9 18,11C18,12.1 18.9,13 20,13ZM24,16.43C24,15.62 23.52,14.9 22.78,14.58C21.93,14.21 20.99,14 20,14C19.61,14 19.24,14.04 18.87,14.1C19.27,14.78 19.5,15.56 19.5,16.39L19.5,18L24,18L24,16.43ZM12,6C13.66,6 15,7.34 15,9C15,10.66 13.66,12 12,12C10.34,12 9,10.66 9,9C9,7.34 10.34,6 12,6Z" style="fill:rgb(40,122,66);fill-rule:nonzero;"/>
    </g>
</svg>
